public/assets/envelope.svg

<svg width="32" height="22" viewBox="0 0 32 22" fill="none" xmlns="http://www.w3.org/2000/svg">
<path d="M21.2119 11.164L31.9999 17.984V4.05601L21.2119 11.164Z" fill="#B86767"/>
<path d="M0 4.05601V17.984L10.788 11.164L0 4.05601Z" fill="#B86767"/>
<path d="M29.9996 0H1.99957C1.00157 0 0.20957 0.744 0.0595703 1.702L15.9996 12.204L31.9396 1.702C31.7896 0.744 30.9976 0 29.9996 0Z" fill="#B86767"/>
<path d="M19.3795 12.372L16.5495 14.236C16.3815 14.346 16.1915 14.4 15.9995 14.4C15.8075 14.4 15.6175 14.346 15.4495 14.236L12.6195 12.37L0.0634766 20.312C0.217477 21.262 1.00548 22 1.99948 22H29.9995C30.9935 22 31.7815 21.262 31.9355 20.312L19.3795 12.372Z" fill="#B86767"/>
</svg>

<svg width="32" height="22" fill="none" xmlns="http://www.w3.org/2000/svg"><path d="M21.212 11.164 32 17.984V4.056l-10.788 7.108ZM0 4.056v13.928l10.788-6.82L0 4.056ZM30 0H2C1.002 0 .21.744.06 1.702L16 12.204 31.94 1.702C31.79.744 30.998 0 30 0ZM19.38 12.372l-2.83 1.864a.999.999 0 0 1-1.1 0l-2.83-1.866L.063 20.312C.217 21.262 1.005 22 2 22h28c.995 0 1.783-.738 1.937-1.688l-12.556-7.94Z" fill="#B86767"/></svg>
